Yaru++/emotes/16/face-pirate.svg

<svg height="16" width="16" xmlns="http://www.w3.org/2000/svg"><path d="m8 0a8 8 0 1 0 0 16 8 8 0 0 0 0-16zm-2.2857143 4.5714286c.6388572 0 1.1794286.5405714 1.1794286 1.1782857v1.1074286c0 .6377142-.5405714 1.1428571-1.1794286 1.1428571-.6377143 0-1.1428571-.5051429-1.1428571-1.1428571v-1.1085715c0-.6377143.5051428-1.1782857 1.1428571-1.1782857zm4.5714283 0c.638857 0 1.142857.5405714 1.142857 1.1782857v1.1074286c0 .6377142-.504 1.1428571-1.142857 1.1428571-.637714 0-1.1428569-.5051429-1.1428569-1.1428571v-1.1085715c0-.6377143.5051429-1.1782857 1.1428569-1.1782857zm-7.3279997 3.1074285c.8914286 3.7782859 5.3634286 5.0651429 8.8057147 3.7565719.008.683428-.222858 1.253714-1.318858 1.469714-2.4754281.486857-5.8982853-.163429-7.6342853-2.9645716-.7611428-1.2274285-.1451428-1.9257143.1474286-2.2628571z" fill="#fdc92b" stroke-width="1.142857"/><path d="m5.7142857 3.9977679c-.6377143 0-1.1428571.5408571-1.1428571 1.1785714v.5714286c0-.6377143.5051428-1.1785714 1.1428571-1.1785714v.00223c.6388572 0 1.1785714.5408571 1.1785714 1.1785714v-.5714265c0-.6377143-.5397142-1.1785714-1.1785714-1.1785714zm-2.7566964 3.109375c-.2210875.2547688-.6254994.7156416-.4821429 1.4553571.0805911-.4145977.3252061-.7030834.4821429-.8839286.8827125 3.7413426 5.2749937 5.0357076 8.7031247 3.7901786.066229-.187008.105223-.387118.102675-.604911-3.4422865 1.308571-7.9143757.021588-8.8058043-3.7566961zm13.0290177.5446428c-.120738 4.3256733-3.659253 7.7712253-7.986607 7.7767853-4.2806045-.003109-7.80028699-3.375237-7.98660709-7.6517853-.12560863 4.4999273 3.48493099 8.2174303 7.98660709 8.2232143 4.552638-.0033 8.18477-3.79989 7.986607-8.3482143z" opacity=".2" stroke-width="1.142857"/><path d="m5.375.453125a8 8 0 0 0 -.4902344.17773438 8 8 0 0 0 -.6796875.328125l4.4160157 2.36718752a3.0352445 3.3317912 0 0 0 -.7597657 2.1992187 3.0352445 3.3317912 0 0 0 3.0351559 3.3320313 3.0352445 3.3317912 0 0 0 2.980469-2.7109375l2.080078 1.1152344a8 8 0 0 0 -.023437-.2929688 8 8 0 0 0 -.142578-.7871094 8 8 0 0 0 -.048828-.1699218z" fill="#3b3b3b"/><path d="m8 0c-4.5526383.00330687-8.18477006 3.7998896-7.98660709 8.3482143.12073743-4.3256732 3.65925279-7.77122591 7.98660709-7.77678573 4.280605.00310942 7.800287 3.37523683 7.986607 7.65178573.125609-4.499927-3.484931-8.21743067-7.986607-8.2232143zm-3.4285714 6.8571429v.5714285c0 .6377143.5051428 1.1428572 1.1428571 1.1428572.6388572 0 1.1785714-.5051429 1.1785714-1.1428572v-.5714285c0 .6377142-.5397142 1.1428571-1.1785714 1.1428571-.6377143 0-1.1428571-.5051429-1.1428571-1.1428571zm-2.0959822 2.2767857c-.069651.3583217-.018041.8082028.3348215 1.3772324 1.736 2.801143 5.1585 3.453375 7.6339291 2.966518 1.096-.216 1.327196-.787554 1.319196-1.470983-.03366.0128-.06882.02119-.102674.03349-.141605.39982-.469786.718906-1.216518.866072-2.4754285.486853-5.8979285-.165379-7.6339285-2.966522-.1859746-.2999017-.2884748-.5666366-.3348261-.8058074z" fill="#fff" opacity=".3" stroke-width="1.142857"/></svg>

<?xml version="1.0" encoding="UTF-8" standalone="no"?>
<svg
   xmlns:dc="http://purl.org/dc/elements/1.1/"
   xmlns:cc="http://creativecommons.org/ns#"
   xmlns:rdf="http://www.w3.org/1999/02/22-rdf-syntax-ns#"
   xmlns:svg="http://www.w3.org/2000/svg"
   xmlns="http://www.w3.org/2000/svg"
   xmlns:sodipodi="http://sodipodi.sourceforge.net/DTD/sodipodi-0.dtd"
   xmlns:inkscape="http://www.inkscape.org/namespaces/inkscape"
   width="16"
   height="16"
   version="1.1"
   id="svg4"
   sodipodi:docname="face-pirate.svg"
   inkscape:version="0.92.4 (5da689c313, 2019-01-14)">
  <metadata
     id="metadata10">
    <rdf:RDF>
      <cc:Work
         rdf:about="">
        <dc:format>image/svg+xml</dc:format>
        <dc:type
           rdf:resource="http://purl.org/dc/dcmitype/StillImage" />
        <dc:title></dc:title>
      </cc:Work>
    </rdf:RDF>
  </metadata>
  <defs
     id="defs8" />
  <sodipodi:namedview
     pagecolor="#ffffff"
     bordercolor="#666666"
     borderopacity="1"
     objecttolerance="10"
     gridtolerance="10"
     guidetolerance="10"
     inkscape:pageopacity="0"
     inkscape:pageshadow="2"
     inkscape:window-width="1920"
     inkscape:window-height="1016"
     id="namedview6"
     showgrid="false"
     inkscape:zoom="41.7193"
     inkscape:cx="4.6483308"
     inkscape:cy="9.1231492"
     inkscape:window-x="0"
     inkscape:window-y="27"
     inkscape:window-maximized="1"
     inkscape:current-layer="svg4" />
  <path
     d="M 8,0 A 8,8 0 1 0 8,16 8,8 0 0 0 8,0 Z M 5.7142857,4.5714286 c 0.6388572,0 1.1794286,0.5405714 1.1794286,1.1782857 V 6.8571429 C 6.8937143,7.4948571 6.3531429,8 5.7142857,8 5.0765714,8 4.5714286,7.4948571 4.5714286,6.8571429 V 5.7485714 c 0,-0.6377143 0.5051428,-1.1782857 1.1428571,-1.1782857 z m 4.5714283,0 c 0.638857,0 1.142857,0.5405714 1.142857,1.1782857 V 6.8571429 C 11.428571,7.4948571 10.924571,8 10.285714,8 9.648,8 9.1428571,7.4948571 9.1428571,6.8571429 V 5.7485714 c 0,-0.6377143 0.5051429,-1.1782857 1.1428569,-1.1782857 z M 2.9577143,7.6788571 C 3.8491429,11.457143 8.3211429,12.744 11.763429,11.435429 c 0.008,0.683428 -0.222858,1.253714 -1.318858,1.469714 C 7.9691429,13.392 4.5462857,12.741714 2.8102857,9.9405714 2.0491429,8.7131429 2.6651429,8.0148571 2.9577143,7.6777143 Z"
     id="path2"
     style="fill:#fdc92b;fill-opacity:1;stroke-width:1.14285719"
     inkscape:connector-curvature="0" />
  <path
     style="opacity:0.2;fill:#000000;fill-opacity:1;stroke-width:1.14285719"
     d="m 5.7142857,3.9977679 c -0.6377143,0 -1.1428571,0.5408571 -1.1428571,1.1785714 v 0.5714286 c 0,-0.6377143 0.5051428,-1.1785714 1.1428571,-1.1785714 v 0.00223 c 0.6388572,0 1.1785714,0.5408571 1.1785714,1.1785714 V 5.1785714 C 6.8928571,4.5408571 6.3531429,4 5.7142857,4 Z M 2.9575893,7.1071429 C 2.7365018,7.3619117 2.3320899,7.8227845 2.4754464,8.5625 2.5560375,8.1479023 2.8006525,7.8594166 2.9575893,7.6785714 3.8403018,11.419914 8.232583,12.714279 11.660714,11.46875 11.726943,11.281742 11.765937,11.081632 11.763389,10.863839 8.3211025,12.17241 3.8490133,10.885427 2.9575847,7.1071429 Z M 15.986607,7.6517857 C 15.865869,11.977459 12.327354,15.423011 8,15.428571 3.7193955,15.425462 0.19971301,12.053334 0.01339291,7.7767857 -0.11221572,12.276713 3.4983239,15.994216 8,16 c 4.552638,-0.0033 8.18477,-3.79989 7.986607,-8.3482143 z"
     id="path822"
     inkscape:connector-curvature="0"
     sodipodi:nodetypes="csccccscccccccccccccc" />
  <path
     style="color:#000000;font-style:normal;font-variant:normal;font-weight:normal;font-stretch:normal;font-size:medium;line-height:normal;font-family:sans-serif;font-variant-ligatures:normal;font-variant-position:normal;font-variant-caps:normal;font-variant-numeric:normal;font-variant-alternates:normal;font-feature-settings:normal;text-indent:0;text-align:start;text-decoration:none;text-decoration-line:none;text-decoration-style:solid;text-decoration-color:#000000;letter-spacing:normal;word-spacing:normal;text-transform:none;writing-mode:lr-tb;direction:ltr;text-orientation:mixed;dominant-baseline:auto;baseline-shift:baseline;text-anchor:start;white-space:normal;shape-padding:0;clip-rule:nonzero;display:inline;overflow:visible;visibility:visible;opacity:1;isolation:auto;mix-blend-mode:normal;color-interpolation:sRGB;color-interpolation-filters:linearRGB;solid-color:#000000;solid-opacity:1;vector-effect:none;fill:#3b3b3b;fill-opacity:1;fill-rule:nonzero;stroke:none;stroke-width:1px;stroke-linecap:butt;stroke-linejoin:miter;stroke-miterlimit:4;stroke-dasharray:none;stroke-dashoffset:0;stroke-opacity:1;color-rendering:auto;image-rendering:auto;shape-rendering:auto;text-rendering:auto;enable-background:accumulate"
     d="M 5.375 0.453125 A 8 8 0 0 0 4.8847656 0.63085938 A 8 8 0 0 0 4.2050781 0.95898438 L 8.6210938 3.3261719 A 3.0352445 3.3317912 0 0 0 7.8613281 5.5253906 A 3.0352445 3.3317912 0 0 0 10.896484 8.8574219 A 3.0352445 3.3317912 0 0 0 13.876953 6.1464844 L 15.957031 7.2617188 A 8 8 0 0 0 15.933594 6.96875 A 8 8 0 0 0 15.791016 6.1816406 A 8 8 0 0 0 15.742188 6.0117188 L 5.375 0.453125 z "
     id="path832" />
  <path
     style="opacity:0.3;fill:#ffffff;fill-opacity:1;stroke-width:1.14285719"
     d="M 8,0 C 3.4473617,0.00330687 -0.18477006,3.7998896 0.01339291,8.3482143 0.13413034,4.0225411 3.6726457,0.57698839 8,0.57142857 12.280605,0.57453799 15.800287,3.9466654 15.986607,8.2232143 16.112216,3.7232873 12.501676,0.00578363 8,0 Z M 4.5714286,6.8571429 v 0.5714285 c 0,0.6377143 0.5051428,1.1428572 1.1428571,1.1428572 0.6388572,0 1.1785714,-0.5051429 1.1785714,-1.1428572 V 6.8571429 C 6.8928571,7.4948571 6.3531429,8 5.7142857,8 5.0765714,8 4.5714286,7.4948571 4.5714286,6.8571429 Z M 2.4754464,9.1339286 c -0.069651,0.3583217 -0.018041,0.8082028 0.3348215,1.3772324 1.736,2.801143 5.1585,3.453375 7.6339291,2.966518 1.096,-0.216 1.327196,-0.787554 1.319196,-1.470983 -0.03366,0.0128 -0.06882,0.02119 -0.102674,0.03349 -0.141605,0.39982 -0.469786,0.718906 -1.216518,0.866072 C 7.9687725,13.393111 4.5462725,12.740879 2.8102725,9.939736 2.6242979,9.6398343 2.5217977,9.3730994 2.4754464,9.1339286 Z"
     id="path817"
     inkscape:connector-curvature="0"
     sodipodi:nodetypes="ccccccssscsccccccccc" />
</svg>
